src/components/Icon/assets/plus-circle-filled.svg

<svg width="24" height="24" viewBox="0 0 24 24" fill="none" xmlns="http://www.w3.org/2000/svg">
<path fill-rule="evenodd" clip-rule="evenodd" d="M17.86 13.0001H13V17.8591H11V13.0001H6.14V11.0001H11V6.14012H13V11.0001H17.86V13.0001ZM12 2.00012C6.5 2.00012 2 6.50012 2 12.0001C2 17.5001 6.5 22.0001 12 22.0001C17.5 22.0001 22 17.5001 22 12.0001C22 6.50012 17.5 2.00012 12 2.00012V2.00012Z" fill="#65676A"/>
</svg>

<svg xmlns="http://www.w3.org/2000/svg" width="24" height="24" viewBox="0 0 24 24">
    <path fill="#65676A" fill-rule="evenodd" d="M17.86 13H13v4.86h-2V13H6.14v-2H11V6.14h2V11h4.86v2zM12 2C6.5 2 2 6.5 2 12s4.5 10 10 10 10-4.5 10-10S17.5 2 12 2z"/>
</svg>
